img/Prev.svg

<svg height="52" viewBox="0 0 53 52" width="53" xmlns="http://www.w3.org/2000/svg"><g fill="none" fill-rule="evenodd"><rect fill="#d8d8d8" fill-opacity=".4" height="52" rx="26" width="53"/><g fill="#8c8b8b"><path d="m11.6517648 24.0134117 10.0103057-9.0092752c.8210201-.738918 2.0855998-.6723612 2.8245178.1486588.3305245.3672495.5134117.843846.5134117 1.3379295v18.0185504c0 1.1045695-.8954305 2-2 2-.4940836 0-.97068-.1828872-1.3379295-.5134117l-10.0103057-9.0092752c-.8210201-.738918-.8875769-2.0034977-.1486589-2.8245178.0469125-.0521249.0965339-.1017464.1486589-.1486588z"/><path d="m24.6517648 24.0134117 10.0103057-9.0092752c.8210201-.738918 2.0855998-.6723612 2.8245178.1486588.3305245.3672495.5134117.843846.5134117 1.3379295v18.0185504c0 1.1045695-.8954305 2-2 2-.4940836 0-.97068-.1828872-1.3379295-.5134117l-10.0103057-9.0092752c-.8210201-.738918-.8875769-2.0034977-.1486589-2.8245178.0469125-.0521249.0965339-.1017464.1486589-.1486588z"/></g></g></svg>

<?xml version="1.0" encoding="UTF-8"?>
<svg width="53px" height="52px" viewBox="0 0 53 52" version="1.1" xmlns="http://www.w3.org/2000/svg" xmlns:xlink="http://www.w3.org/1999/xlink">
    <!-- Generator: Sketch 51.2 (57519) - http://www.bohemiancoding.com/sketch -->
    <title>Prev</title>
    <desc>Created with Sketch.</desc>
    <defs></defs>
    <g id="Events" stroke="none" stroke-width="1" fill="none" fill-rule="evenodd">
        <g id="Assets" transform="translate(-44.000000, -609.000000)">
            <g id="Elements-/-Richdata-/-Music-controls" transform="translate(44.000000, 537.000000)">
                <g id="Prev" transform="translate(0.000000, 72.000000)">
                    <rect id="Rectangle-5" fill-opacity="0.4" fill="#D8D8D8" x="0" y="0" width="53" height="52" rx="26"></rect>
                    <path d="M11.6517648,24.0134117 L21.6620705,15.0041365 C22.4830906,14.2652185 23.7476703,14.3317753 24.4865883,15.1527953 C24.8171128,15.5200448 25,15.9966413 25,16.4907248 L25,34.5092752 C25,35.6138447 24.1045695,36.5092752 23,36.5092752 C22.5059164,36.5092752 22.02932,36.326388 21.6620705,35.9958635 L11.6517648,26.9865883 C10.8307447,26.2476703 10.7641879,24.9830906 11.5031059,24.1620705 C11.5500184,24.1099456 11.5996398,24.0603241 11.6517648,24.0134117 Z" id="Path-2" fill="#8C8B8B"></path>
                    <path d="M24.6517648,24.0134117 L34.6620705,15.0041365 C35.4830906,14.2652185 36.7476703,14.3317753 37.4865883,15.1527953 C37.8171128,15.5200448 38,15.9966413 38,16.4907248 L38,34.5092752 C38,35.6138447 37.1045695,36.5092752 36,36.5092752 C35.5059164,36.5092752 35.02932,36.326388 34.6620705,35.9958635 L24.6517648,26.9865883 C23.8307447,26.2476703 23.7641879,24.9830906 24.5031059,24.1620705 C24.5500184,24.1099456 24.5996398,24.0603241 24.6517648,24.0134117 Z" id="Path-2" fill="#8C8B8B"></path>
                </g>
            </g>
        </g>
    </g>
</svg>
